!!!!SEGMENT: Lpi1001a-Missa_Philomena-Kyrie.krn
!!!id: Lpi1001a
!!!AGN: Mass; Kyrie
!!!SCT: Blackburn (1989)
!!!voices: 4
!!!COM: Johannes Lupi
!!!OTL: Kyrie
**kern	**kern	**kern	**kern
*part4	*part3	*part2	*part1
*staff4	*staff3	*staff2	*staff1
*I"Bassus	*I"Tenor	*I"Altus	*I"Superius
*I'B	*I'T	*I'A	*I'S
*clefF4	*clefF4	*clefGv2	*clefG2
*k[b-]	*k[b-]	*k[b-]	*k[b-]
*F:	*F:	*F:	*F:
*M2/1	*M2/1	*M2/1	*M2/1
*met(C|)	*met(C|)	*met(C|)	*met(C|)
!!section: Kyrie I
!!!OMD: Kyrie I
=1	=1	=1	=1
1.C	1r	0r	0r
.	[1G	.	.
2C	.	.	.
=2	=2	=2	=2
2BB-y	2G]	0r	0r
2GG	2G	.	.
2.BB-y	2F	.	.
.	2D	.	.
4C	.	.	.
=3	=3	=3	=3
1D	2.F	0r	0r
.	4G	.	.
2.D	4A	.	.
.	4F	.	.
.	2B-y	.	.
4E	.	.	.
=4	=4	=4	=4
4F	2A	1.c	0r
4D	.	.	.
1G	2G	.	.
.	1A	.	.
2F#i	.	2c	.
=5	=5	=5	=5
1G	2G	2B-y	1r
.	2.B-y	2G	.
1GG	.	1B-y	2r
.	4A	.	.
.	4G	.	[2g
.	4F	.	.
=6	=6	=6	=6
0r	1E	1c	2g]
.	.	.	2g
.	[1D	2d	2f
.	.	[2f	2d
=7	=7	=7	=7
0r	1D]	4f]	1f
.	.	4e	.
.	.	1d	.
.	1r	.	1e
.	.	2c	.
=8	=8	=8	=8
0r	0r	2.B-y	1d
.	.	8AL	.
.	.	8GJ	.
.	.	2F	2r
.	.	2G	2d
=9	=9	=9	=9
0r	0r	2D	2d
.	.	2d	2d
.	.	2d	4G
.	.	.	4A
.	.	2d	4B-y
.	.	.	4c
=10	=10	=10	=10
0r	2r	4G	4d
.	.	4A	4c
.	2D	4B-y	4d
.	.	4G	4e
.	2D	2A	2f
.	2D	[2B-y	[2d
=11	=11	=11	=11
1r	4GG	2B-]	2d]
.	4AA	.	.
.	4BB-y	4A	4c
.	4C	4G	4B-y
2r	4D	1F	1A
.	4E	.	.
2D	4F	.	.
.	4G	.	.
=12	=12	=12	=12
2D	2A	0r	0r
2D	2.B-y	.	.
2GG	.	.	.
.	4A	.	.
[2C	4G	.	.
.	4F	.	.
=13	=13	=13	=13
4C]	4E	1.c	0r
4BB-y	4D	.	.
4AA	1G	.	.
4GG	.	.	.
1AA	.	.	.
.	2F#i	2c	.
=14	=14	=14	=14
0GG	0G	2B-y	1r
.	.	2G	.
.	.	1B-y	[1g
=15	=15	=15	=15
0r	0r	1c	2g]
.	.	.	2g
.	.	2d	2f
.	.	[2f	2d
=16	=16	=16	=16
0r	0r	4f]	1f
.	.	4e	.
.	.	1d	.
.	.	.	1e
.	.	2c	.
=17	=17	=17	=17
0r	2r	1d	0d
.	2G	.	.
.	2G	2r	.
.	2G	2G	.
=18	=18	=18	=18
0r	1B-y	2G	2r
.	.	2G	2d
.	2G	2.B-y	2d
.	[2B-y	.	2d
.	.	4c	.
=19	=19	=19	=19
1r	2B-]	4d	2.f
.	.	4e	.
.	4A	2.f	.
.	4G	.	4g
2r	2F	.	2a
.	.	4e	.
2GG	2G	4d	[2b-y
.	.	4c	.
=20	=20	=20	=20
2GG	2D	1.d	4b-]
.	.	.	4a
2GG	2.B-y	.	2g
2.BB-y	.	.	2f
.	4A	.	.
.	2G	2d	2b-y
4C	.	.	.
=21	=21	=21	=21
2D	2F	2d	4a
.	.	.	4g
2E	2G	2c	1g
1D	1A	1d	.
.	.	.	2f#i
=	=	=	=
00GG	00G	00d	00g
=||	=||	=||	=||
*M2/1	*M2/1	*M2/1	*M2/1
*met(C|)	*met(C|)	*met(C|)	*met(C|)
!!section: Christe
!!!OMD: Christe
0r	0r	1.G	1.g
.	.	[2B-y	2g
=22	=22	=22	=22
0r	0r	4B-]	2f
.	.	4A	.
.	.	1d	4e
.	.	.	4d
.	.	.	1e
.	.	2c#i	.
=23	=23	=23	=23
2r	0r	1d	2.d
1G	.	.	.
.	.	.	4c
.	.	2r	2B-y
2G	.	2G	[2e-i
=24	=24	=24	=24
2F	1r	2A	4e-]
.	.	.	4d
4E	.	1B-y	1d
4D	.	.	.
1E	1G	.	.
.	.	4A	2c
.	.	4G	.
=25	=25	=25	=25
0D	2A	2F	0d
.	1B-y	2f	.
.	.	2d	.
.	4A	[2f	.
.	4G	.	.
=26	=26	=26	=26
0r	2F	4f]	1r
.	.	4e	.
.	1G	4d	.
.	.	4c	.
.	.	2B-y	2r
.	2G	4A	[2d
.	.	4G	.
=27	=27	=27	=27
0r	2F	2A	2d]
.	4E	2.B-y	2d
.	4D	.	.
.	1E	.	2B-y
.	.	4A	.
.	.	[2G	4A
.	.	.	4G
=28	=28	=28	=28
0r	0D	2G]	2.B-y
.	.	4F	.
.	.	4E	4c
.	.	1F#i	1A
=29	=29	=29	=29
0r	2r	1G	2B-y
.	1G	.	4G
.	.	.	4A
.	.	[1d	4B-y
.	.	.	4c
.	2F	.	4d
.	.	.	4e
=30	=30	=30	=30
0r	2D	2d]	4f
.	.	.	4g
.	2F	2d	2.a
.	1E	1G	.
.	.	.	4g
.	.	.	2g
=31	=31	=31	=31
2r	2D	2.d	2f
1G	4GG	.	2.b-y
.	4AA	4c	.
.	4BB-y	4d	.
.	4C	4e	4a
2F	4D	[2f	[2a
.	4E	.	.
=32	=32	=32	=32
2D	4F	4f]	2a]
.	4G	4e	.
2F	1A	1d	4g
.	.	.	4f
1E	.	.	1g
.	2G	2c#i	.
=	=	=	=
00D	00A	00d	00f
=||	=||	=||	=||
*M2/1	*M2/1	*M2/1	*M2/1
*met(C|)	*met(C|)	*met(C|)	*met(C|)
!!section: Kyrie II
!!!OMD: Kyrie II
1.BB-y	1.B-y	0r	0r
2BB-y	2B-y	.	.
=33	=33	=33	=33
2C	2.A	2r	2r
2.D	.	1d	1f
.	4G	.	.
.	2F	.	.
4C	.	.	.
4BB-y	[2B-y	2d	2f
4AA	.	.	.
=34	=34	=34	=34
2GG	4B-]	1d	1g
.	4A	.	.
2BB-y	2.G	.	.
1AA	.	1c	1a
.	8F#iL	.	.
.	8EJ	.	.
.	2F#i	.	.
=35	=35	=35	=35
1GG	2.G	2B-y	2.b-y
.	.	2.d	.
.	4E	.	4g
1r	2F	.	2a
.	.	4c	.
.	[2G	4B-y	[2b-y
.	.	4A	.
=36	=36	=36	=36
0r	4G]	2G	4b-]
.	4F	.	4a
.	4E	2B-y	1g
.	4D	.	.
.	2C	1A	.
.	2D	.	2f#i
=37	=37	=37	=37
0r	2GG	1G	1g
.	1G	.	.
.	.	2r	1a
.	2F#i	[2d	.
=38	=38	=38	=38
2r	1G	2d]	0g
1G	.	2d	.
.	1C	2.e	.
2G	.	.	.
.	.	4d	.
=39	=39	=39	=39
2.A	0r	2c	0r
.	.	2.f	.
4G	.	.	.
2F	.	.	.
.	.	4e	.
[2G	.	4d	.
.	.	4c	.
=40	=40	=40	=40
4G]	2r	4B-y	2r
4F	.	4A	.
4E	1G	1d	1g
4D	.	.	.
1E	.	.	.
.	2G	2c#i	2g
=41	=41	=41	=41
1D	2.A	1d	2f
.	.	.	4e
.	4G	.	4d
1r	2F	1r	2f
.	[2G	.	[2e
=42	=42	=42	=42
0r	4G]	2r	4e]
.	4F	.	4d
.	4E	2G	1d
.	4D	.	.
.	1E	2G	.
.	.	2G	2c#i
=43	=43	=43	=43
0r	2D	2F	0d
.	4GG	2G	.
.	4AA	.	.
.	4BB-y	2D	.
.	4C	.	.
.	4D	[2f	.
.	4E	.	.
=44	=44	=44	=44
2r	2F	4f]	0r
.	.	4e	.
2G	2G	1d	.
2G	1E	.	.
2G	.	2c#i	.
=45	=45	=45	=45
2F	2D	1d	2r
2G	1G	.	1B-y
1D	.	[1dl	.
.	2F#i	.	2A
=46	=46	=46	=46
2r	2G	0d_	2B-y
1G	2.B-y	.	4G
.	.	.	4A
.	.	.	4B-y
.	4A	.	4c
2G	4B-y	.	4d
.	4G	.	4e
=47	=47	=47	=47
1F	2A	0d_	4f
.	.	.	4g
.	2F	.	2.a
1G	[1B-y	.	.
.	.	.	4g
.	.	.	[2g
=48	=48	=48	=48
0D	2B-]	0d_	2g]
.	4A	.	4f#i
.	4G	.	4e
.	1A	.	2f#i
.	.	.	4g
.	.	.	4f#i
=49	=49	=49	=49
00GGl	00Gl	00d]	00gl
==	==	==	==
*-	*-	*-	*-
!!!system-decoration: [*]
!!!RDF**kern: i = editorial accidental
!!!RDF**kern: l = terminal long
!!!ENC: Benjamin Ory
!!!END: 2021/5/21
!!!EED: Benjamin Ory
!!!EEV: 2021/05/21
!!!YEC: Copyright 2021 Benjamin Ory, All Rights Reserved
!!!ONB: Translated from MusicXML on 2021/05/21
